packages/kaspersky-hexa-ui-icons/src/iconsSVGs/24/Sent.svg

<svg width="24" height="24" viewBox="0 0 24 24" fill="none" xmlns="http://www.w3.org/2000/svg">
<path fill-rule="evenodd" clip-rule="evenodd" d="M21.8998 4.26988C22.3815 2.92103 21.0791 1.61863 19.7302 2.10036L3.12666 8.03022C1.71881 8.53302 1.60133 10.4785 2.93845 11.1471L9.54818 14.4519L12.853 21.0617C13.5216 22.3988 15.4671 22.2813 15.9699 20.8735L21.8998 4.26988ZM4.46695 9.67527L19.8015 4.19865L14.3249 19.5332L11.5101 13.9037L16.5799 8.83397C16.9704 8.44344 16.9704 7.81028 16.5799 7.41975C16.1894 7.02923 15.5562 7.02923 15.1657 7.41975L10.0958 12.4897L4.46695 9.67527Z" fill="black"/>
</svg>

<svg xmlns="http://www.w3.org/2000/svg" width="24" height="24" fill="none" viewBox="0 0 24 24"><path fill="#000" fill-rule="evenodd" d="M21.8998 4.2699c.4817-1.3489-.8207-2.6513-2.1696-2.1695L3.1267 8.0302c-1.4079.5028-1.5254 2.4483-.1883 3.1169l6.6098 3.3048 3.3048 6.6098c.6686 1.3371 2.6141 1.2196 3.1169-.1882zM4.467 9.6753l15.3345-5.4766-5.4766 15.3345-2.8148-5.6295 5.0698-5.0697c.3905-.3906.3905-1.0237 0-1.4142-.3905-.3906-1.0237-.3906-1.4142 0l-5.0699 5.0699z"/></svg>
